X:1
T:47
T:Hugo Distler
T:15th cent. Lat. Erasmus Alber (1500 - 1561)
T:47.  Christ, You Who Are the Light of Day Christ, der du bist der helle Tag Vespers
T:Bärenreiter
T:Bärenreiter
C:Hugo Distler
Z:15th cent. Lat.
Z:Erasmus Alber (1500 - 1561)
Z:Bärenreiter
%%score [ ( 1 2 ) ( 3 4 ) ( 5 6 ) ]
L:1/8
Q:1/4=88
M:4/4
K:C
V:1 treble nm="Sop."
V:2 treble 
V:3 treble nm="Alto"
V:4 treble 
V:5 bass nm="Bar."
V:6 bass 
V:1
 G4 G2 G2 | _B2 G2 B2 c2 | !breath!d2 d2 d2 d2 | f4 _e2 (d2- | d2 c_B c2) c2 | %5
w: 1. Christ, You who|are the Light of|day, with You the|night can- not|_ _ _ _ pre-|
w: 2. O, dear- est|Lord, guard us this|night and keep all|e- vil from|_ _ _ _ our|
w: 3. So now in|Your dear Name we|sleep, while Your dear|an- gel watch|_ _ _ _ will|
 !breath!_B4 B2 (B2- | Bc) d2 c2 _B2 | c2 c2 !breath!d2 d2 |[M:3/4] d4 d2 | g4 f2 | %10
w: vail, You bring|_ _ to us the|Fa- ther's light; You|are the|Min- is-|
w: sight, and let|_ _ us rest the|night in You and|keep us|safe from|
w: keep. Our ho-|* * ly Lord, the|One in Three, we|give You|praise e-|
[M:4/4] _e3 d c2 _B2- | B_BAG A2 A2 | G8 |] %13
w: ter _ _ _|_ _ _ _ _ of|Light.|
w: Sa- * * *|* * * * * tan's|rule.|
w: ter- * * *|* * * * * nal-|ly.|
V:2
 x8 | x8 | x8 | x8 | x8 | x8 | x8 | x8 |[M:3/4] x6 | x6 |[M:4/4] x8 | x4 A2 d2 | d8 |] %13
V:3
 _B,2 (B,3 C) D2 | _E3 F G2 A2 | !breath!=B2 G2 _B3 B | _A2 G2 (c3 _B | G2 _A4) A2 | %5
w: 1. Christ, You _ who|are the Light of|day, with You the|night can- not _|_ _ pre-|
w: 2. O, dear- * est|Lord, guard us this|night and keep all|e- vil from _|_ _ our|
w: 3. So now _ in|Your dear Name we|sleep, while Your dear|an- gel watch _|_ _ will|
 !breath!G4 G2 (G2- | G=A) _B2 Ac G2- | G2 A2 !breath!_B2 c2 |[M:3/4]"^*)" !breath!_B6 | %9
w: vail, You bring|_ _ to us the Fa-|* ther's light; You|are,|
w: sight, and let|_ _ us rest the night|_ in You and|keep,|
w: keep. Our ho-|* * ly Lord, the One|_ in Three, we|_|
 _B2 B2 B2 |[M:4/4] (_B3 A GF G2) | G2 (F3 G) A2 | =B8 |] %13
w: You are the|Min- * * * *|is- ter _ of|Light.|
w: and keep us|safe _ _ _ _|from Sa- * tan's|rule.|
w: |praise _ _ _ _|e- ter- * nal-|ly.|
V:4
 x8 | x8 | x8 | x8 | x8 | x8 | x8 | x8 |[M:3/4] _B2 B2 B2- | B_B B2 B2 |[M:4/4] x8 | x8 | x8 |] %13
w: |||||||||||||
w: |||||||||||||
w: ||||||||give You praise,|_ we give You||||
V:5
 G,4 F,3 F, | _E,2 D,2 C,2 C,2 | G,4 z4 | z8 | z8 | z2 _E,2 E,2 G,2 | (F,3 _E,) F,2 G,2 | %7
w: 1. Christ, You who|are the Light of|day,|||You bring to|us _ the Fa-|
w: 2. O, dear- est|Lord, guard us this|night|||and let us|rest _ the night|
w: 3. So now in|Your dear Name we|sleep,|||Our ho- ly|Lord, _ the One|
 F,4"^()" _B,2"^*)" A,2 |[M:3/4] G,4 F,2 | _E,4 _B,,2 |[M:4/4] (C,6 G,2 | D,4) D,4 | G,8 |] %13
w: ther's light; You|are the|Min- is-|ter _|_ of|Light.|
w: in You and|keep us|safe from|Sa- *|* tan's|rule.|
w: in Three, we|_ _|praise e-|ter- *|* nal-|ly.|
V:6
 x8 | x8 | x8 | x8 | x8 | x8 | x8 | x6 (A,2 |[M:3/4] G,2) G,2 F,2 | x6 |[M:4/4] x8 | x8 | x8 |] %13
w: |||||||||||||
w: |||||||||||||
w: ||||||||* give You|||||

